!!!COM: Anon.
!!!OTL: Oedo-Nihonbashi
!!!OTC: Japanese Popular Music: A Collection of The Popular Music of Japan Rendered in to the Staff notation.
!!!CNT: Nippon, Japanese
!!!TXO: Nippon, Japan
!!!OCY: Nippon, Japan
!!!ODT: <1892///
!!!PSR: S. Miki & Co.
!!!PSP: Osaka, Nippon
!!!PDT: 1892///
!!!PPE: Y Nagai & K. Kobatake
!!!PED: Revised Second Edition
!!!PPG: page 7
!! Andante
!!!ONB: XXX identifies introductory notes that do not have lyrics.
!!!ONB: This implies that these notes are played rather than sung.
**kern	**silbe
*ICstr	*Lnippon
*ICvox	*
*Ikoto	*
*Ivox	*
*clefG2	*
*k[f#]	*
*M2/4	*
=1-	=1-
8ccXXX	.
8bXXX	.
(16ccXXX	.
16b)XXX	.
16BXXX	.
16bXXX	.
=2	=2
8ccXXX	.
8bXXX	.
(16ccXXX	.
16b)XXX	.
16BXXX	.
16b	.
=3	=3
8cc	.
8b	.
8cc	.
8b	O
=4	=4
8cc	e
8b	do
8cc	ni
8ee	hon
=5	=5
8cc	ba
8b	shi
8e	na
8b	na
=6	=6
8ee	tou
8cc	da
[4b	chi
=7	=7
4b]	|
8b	ha
8b	tsu
=8	=8
8f#	no-
8a	-ta
[4b	bi
=9	=9
8b]	|
8r	.
4b	giyo
=10	=10
8b	re
8a	tsu
8b	so
8b	ro
=11	=11
8ee	e
8cc	te
16b	a
16b	re
16cc	wa-
16cc	-i
=12	=12
8g	sa
8g	no
4f#	se
=13	=13
8g	ko
8f#	chiya
8e	ta
8e	ka
=14	=14
8c	na
8B	wa
8e	yo
8e	a
=15	=15
8f#	ke
8f#	te
8r	.
(8cc	cho
=16	=16
8b	|
8g)	|
8f#	chin
8e	|
=17	=17
8f#	|
8a	ke
4b	su
=18	=18
8cc	ko
8cc	chiya
4b	e
=19	=19
8ee	ko
8cc	cha
[4b	e
=20	=20
4b]	|
8r	.
==:|!	==:|!
*-	*-
!!!ENC: David Huron
!!!RDT: 2000/1/30
!!!EEV: Release 1.0
!!!ELF: 3/28
!!!YER: 2000/2/1
!!!YEM: Copyright David Huron, 2000
!!!YEN: United States of America
